icons/globe.svg

<svg xmlns="http://www.w3.org/2000/svg" width="24" height="24" viewBox="0 0 24 24">
  <path d="M12,1 C18.0751322,1 23,5.92486775 23,12 C23,18.0751322 18.0751322,23 12,23 C5.92486775,23 1,18.0751322 1,12 C1,5.92486775 5.92486775,1 12,1 Z M14.9787785,13.0004346 L9.02122154,13.0004346 C9.21421364,17.5355948 10.6884762,21 12,21 C13.3115238,21 14.7857864,17.5355948 14.9787785,13.0004346 Z M7.01847249,13.0006406 L3.05500569,13.0006955 C3.42574803,16.3521027 5.6367105,19.1487926 8.65500314,20.3578752 C7.71193719,18.5384178 7.12724353,15.9267442 7.01847249,13.0006406 Z M20.9449943,13.0006955 L16.9815275,13.0006406 C16.8727565,15.9267442 16.2880628,18.5384178 15.3451588,20.358304 C18.3632895,19.1487926 20.574252,16.3521027 20.9449943,13.0006955 Z M8.65484124,3.64169598 L8.49679384,3.70726461 C5.55935236,4.94969759 3.41880673,7.70728988 3.05489527,11.0003032 L7.01843525,11.0003618 C7.12711,8.0738522 7.71182952,5.46179006 8.65484124,3.64169598 Z M12,3 L11.909991,3.00538207 C10.6217717,3.15865822 9.20959689,6.56839559 9.02117881,11.0005701 L14.9788212,11.0005701 C14.7860041,6.46491679 13.3116206,3 12,3 L12,3 Z M15.3449969,3.64212484 L15.3819675,3.71350051 C16.3033808,5.53015515 16.874311,8.11211962 16.9815647,11.0003618 L20.9451047,11.0003032 C20.5746912,7.64845291 18.3635893,4.85132753 15.3449969,3.64212484 Z"/>
</svg>

<svg xmlns="http://www.w3.org/2000/svg" viewBox="0 0 24 24">
  <path d="M12 1a11 11 0 1 1 0 22 11 11 0 0 1 0-22zm2.98 12H9.02c.2 4.54 1.67 8 2.98 8s2.79-3.46 2.98-8zm-7.96 0H3.06a9 9 0 0 0 5.6 7.36C7.7 18.54 7.13 15.93 7.02 13zm13.92 0h-3.96c-.1 2.93-.7 5.54-1.63 7.36a9.01 9.01 0 0 0 5.6-7.36zM8.65 3.64l-.15.07A9 9 0 0 0 3.05 11h3.97c.1-2.93.7-5.54 1.63-7.36zM12 3h-.09c-1.29.16-2.7 3.57-2.89 8h5.96c-.2-4.54-1.67-8-2.98-8zm3.34.64.04.07c.92 1.82 1.5 4.4 1.6 7.29h3.97a9 9 0 0 0-5.6-7.36z"/>
</svg>
